X:1
T:O filii et filiae!
R:Noel
A:France
Z:abc transcription Simon Wascher
F:http://simonwascher.info/
M:3/4
L:1/4
K:G dor
V:1
G |\
B2c | (d""c)B | c""A2 | G2 :|
|:G |\
G2A | ""^F2G | A2A | D2A |
B""A2 | G2 :|
V:2
G |\
G2A | (B""A)G | A""^F2 | G2 :|
|:B |\
B2c | ""A2G | ^F/E/D/E/F/G/ | A2D |
G""^F2 | G2 :|
